X: 103
T: Xue gai shanliang There has been a fall of snow on the pass
%%abc-version 2.0
%%abcx-abcm2ps-target-version 5.9.1 (29 Sep 2008)
%%abc-creator hum2abc beta
%%abcx-conversion-date 2013/10/02 07:44:27
%%abc-edited-by Helmut Schaffrath
%%humdrum-veritas 2410826157
%%humdrum-veritas-data 3340379388
%%continueall 1
%%barnumbers 0
L: 1/16
M: 2/4
K: C
E2 G A2< c2 A [I:setbarnb 1]| 
G2> A2G4 | 
E2 G A2< c2 A | 
G8 | 
E2 G A2< c2 A | 
G2 A c2< C2 D | 
E2> E2 D E G2 | 
C8 |]  



